packages/components/icon/src/assets/icons/question.svg

<svg width="24" height="24" viewBox="0 0 24 24" fill="none" xmlns="http://www.w3.org/2000/svg">
<path fill-rule="evenodd" clip-rule="evenodd" d="M12 20C7.58171 20 4 16.4183 4 12C4 7.58171 7.58171 4 12 4C16.4183 4 20 7.58171 20 12C20 16.4183 16.4183 20 12 20ZM10.7476 13.8724H12.7768V13.5667C12.7768 12.9552 13.024 12.6627 13.915 12.1488C14.871 11.596 15.3198 10.9326 15.3198 9.97009C15.3198 8.40914 14.032 7.36838 12.0549 7.36838C9.97371 7.36838 8.73791 8.48057 8.71848 10.1846H10.8322C10.8516 9.55371 11.281 9.13752 11.9053 9.13752C12.5166 9.13752 12.9459 9.50171 12.9459 10.0286C12.9459 10.601 12.7183 10.8741 11.8337 11.3943C10.9297 11.9147 10.6046 12.5 10.728 13.6122L10.7476 13.8724ZM11.8011 17.0528C12.4775 17.0528 13.0305 16.5389 13.0305 15.8819C13.0305 15.2316 12.4775 14.7177 11.8011 14.7177C11.1183 14.7177 10.572 15.2316 10.572 15.8819C10.572 16.5389 11.1183 17.0528 11.8011 17.0528Z" fill="currentColor"/>
</svg>

<svg viewBox="0 0 24 24" fill="none" xmlns="http://www.w3.org/2000/svg"><path fill-rule="evenodd" clip-rule="evenodd" d="M12 20a8 8 0 1 1 0-16 8 8 0 0 1 0 16Zm-1.252-6.128h2.029v-.305c0-.612.247-.904 1.138-1.418.956-.553 1.405-1.216 1.405-2.179 0-1.56-1.288-2.602-3.265-2.602-2.081 0-3.317 1.113-3.337 2.817h2.114c.02-.631.449-1.047 1.073-1.047.612 0 1.04.364 1.04.89 0 .573-.227.846-1.111 1.366-.904.52-1.23 1.106-1.106 2.218l.02.26Zm1.053 3.18c.676 0 1.23-.513 1.23-1.17 0-.65-.554-1.164-1.23-1.164-.683 0-1.229.514-1.229 1.164 0 .657.546 1.17 1.23 1.17Z" fill="currentColor"/></svg>
